svg_80x80/linux.svg

<svg viewBox="0 0 80 80" xmlns="http://www.w3.org/2000/svg">
<rect width="100%" height="100%" fill="white"/>
<path d="M62.0502 52.775L62.6627 52.8625C63.7127 53.0375 64.5877 53.825 64.7627 54.875C64.9377 55.4875 65.0252 56.1 65.1127 56.7125C65.2877 57.675 65.8127 58.6375 66.5127 59.25C67.2127 59.8625 67.9127 60.3875 68.5252 61C68.8752 61.2625 69.1377 61.6125 69.4877 61.9625C70.1877 62.6625 70.1877 63.8875 69.4877 64.5875C69.0502 65.1125 68.6127 65.55 68.0002 65.9C66.7752 66.775 65.5502 67.5625 64.3252 68.35C62.0502 69.8375 59.8627 71.5 57.7627 73.425C55.4877 75.2625 52.2502 75.35 49.8877 73.6875C49.1002 73.075 48.5752 72.2875 48.3127 71.2375C48.3127 71.0625 48.2252 70.975 48.0502 70.8875C46.3877 70.1 44.6377 69.575 42.8002 69.4C40.6127 69.1375 38.3377 69.1375 36.1502 69.4875C35.6252 69.575 35.1002 69.75 34.6627 69.8375C34.4877 69.925 34.3127 70.0125 34.2252 70.1875C33.6127 72.025 32.2127 73.425 30.3752 74.0375C29.0627 74.3875 27.6627 74.3875 26.4377 73.95C25.4752 73.6875 24.5127 73.3375 23.5502 72.9875C21.8877 72.375 20.0502 71.85 18.3002 71.5C16.3752 71.0625 14.5377 70.5375 12.7002 70.1C12.4377 70.0125 12.1752 69.925 12.0002 69.8375C10.8627 69.3125 10.2502 68.0875 10.6002 66.8625C10.6877 66.425 10.7752 66.075 10.9502 65.725C11.2127 64.5 11.3002 63.1875 11.1252 61.9625C11.0377 61 11.0377 60.0375 11.0377 59.1625C10.9502 57.85 11.8252 56.7125 13.1377 56.5375C13.9252 56.275 14.7127 56.1 15.5002 56.0125C16.5502 55.8375 17.4252 55.225 17.9502 54.2625C18.3002 53.65 18.7377 53.0375 19.1752 52.425C19.4377 52.075 19.6127 51.6375 19.6127 51.2C19.5252 47.7 20.4877 44.2875 22.4127 41.4C24.0752 38.8625 25.8252 36.325 27.5752 33.875C29.0627 31.8625 30.1127 29.675 30.9002 27.3125C31.3377 25.5625 31.5127 23.8125 31.3377 21.975C31.1627 19.35 31.1627 16.6375 31.3377 14.0125C31.6002 10.1625 34.2252 6.75 37.9877 5.6125C40.7877 4.65 43.8502 5 46.3877 6.6625C48.4002 7.975 49.8002 10.075 50.2377 12.4375C50.5877 14.0125 50.7627 15.5875 50.6752 17.1625C50.6752 19.175 50.7627 21.275 50.8502 23.2875C50.9377 25.2125 51.5502 27.1375 52.6002 28.8C53.5627 30.4625 54.6127 32.125 55.8377 33.6125C57.7627 36.15 59.4252 38.8625 60.9127 41.6625C61.7002 43.15 62.3127 44.8125 62.6627 46.475C63.0127 48.4 62.8377 50.4125 62.3127 52.3375C62.0502 52.425 62.0502 52.6 62.0502 52.775Z" fill="#292929"/>
<path d="M59.6001 51.2C58.8126 50.675 57.8501 50.4125 56.8876 50.325C56.2751 50.2375 55.5751 50.2375 54.9626 50.15C55.8376 48.1375 56.0126 45.95 55.4876 43.85C54.9626 41.925 52.7751 38.775 51.9001 38.6875C53.3876 40.0875 54.3501 41.8375 54.7876 43.85C55.3126 45.95 54.9626 48.1375 53.9126 49.975C53.9126 50.0625 53.8251 50.15 53.7376 50.15H53.0376V49.7125C52.9501 48.6625 52.9501 47.6125 52.8626 46.5625C52.5126 44.375 51.8126 42.275 50.8501 40.2625C50.4126 39.3 49.8876 38.425 49.1876 37.6375C49.1001 37.4625 48.9251 37.2875 48.9251 37.025C48.7501 36.2375 48.4876 35.3625 48.2251 34.575C47.1751 32.3 46.3876 29.85 46.0376 27.3125C45.9501 26.7 45.7751 26.0875 45.6876 25.475L44.1126 26.525C43.5001 26.9625 42.8876 27.575 42.1876 28.0125C41.1376 28.8 40.0001 29.325 38.6876 29.5C37.1126 29.7625 35.4501 29.0625 34.4876 27.75C34.1376 27.3125 33.7001 26.875 33.3501 26.4375L33.0876 26.175C32.8251 27.4875 32.6501 28.7125 32.3876 30.025C32.1251 31.6 31.6001 33.175 30.9001 34.575C30.2876 35.7125 29.7626 36.85 29.4126 38.075C29.4126 38.1625 29.3251 38.25 29.3251 38.25C28.9751 38.6875 28.7126 39.0375 28.4501 39.5625C26.7876 42.625 25.7376 45.95 25.3876 49.3625C25.1251 49.975 25.1251 50.5 25.1251 50.9375C24.2501 49.0125 24.0751 46.825 24.5126 44.725C24.8626 42.625 25.8251 40.7 27.2251 39.125C27.1376 39.125 27.1376 39.125 27.0501 39.2125C26.7876 39.475 26.5251 39.7375 26.2626 40.0875C23.9876 42.8875 23.1126 46.5625 23.7251 50.15C23.9001 51.4625 24.5126 52.6875 25.3876 53.65C25.9126 54.2625 26.4376 54.7875 27.0501 55.225C28.1876 56.1875 29.4126 56.975 30.5501 57.9375L32.1251 59.25C33.0001 60.125 32.9126 61.525 32.0376 62.4C31.6876 62.75 31.3376 63.0125 30.9876 63.275C31.5126 63.8 32.1251 64.2375 32.8251 64.5C35.8876 65.8125 39.3001 66.075 42.5376 65.2875C45.1626 64.675 47.5251 63.1875 49.1876 61C49.2751 60.9125 49.2751 60.825 49.2751 60.65C49.3626 59.6875 49.3626 58.725 49.4501 57.7625C49.5376 56.8 49.5376 55.925 49.6251 54.9625C49.6251 53.9125 50.4126 52.95 51.5501 52.775C51.6376 52.6875 51.7251 52.6 51.7251 52.5125C51.8126 51.9 52.2501 51.375 52.8626 51.2C53.3876 51.025 54.0001 50.9375 54.5251 50.85C56.1876 50.675 57.9376 50.7625 59.6001 51.2ZM43.3251 21.45C43.6751 21.625 44.0251 21.7125 44.4626 21.8875C44.5501 21.975 44.7251 21.975 44.8126 21.8V21.7125C45.0751 21.275 45.4251 20.8375 45.6876 20.3125C46.2126 19.4375 46.3001 18.3875 46.0376 17.425C45.8626 16.2875 44.9876 15.2375 43.8501 14.8875C42.8001 14.5375 41.5751 14.8875 40.8751 15.7625C39.9126 16.9 39.4751 18.3875 39.7376 19.7875C39.7376 19.875 39.7376 19.875 39.8251 19.9625L41.0501 20.4C40.7001 19.525 40.8751 18.475 41.4876 17.775C42.0126 17.075 42.9751 16.9 43.6751 17.3375C44.0251 17.5125 44.2001 17.8625 44.2876 18.2125C44.6376 19.525 44.2876 20.8375 43.3251 21.45ZM35.7126 20.4C35.8001 20.3125 36.0626 20.3125 36.2376 20.225C36.3251 20.1375 36.4126 20.1375 36.4126 20.05C36.5876 18.7375 36.2376 17.425 35.4501 16.375C35.1876 15.9375 34.6626 15.675 34.1376 15.675C33.1751 15.5875 32.3876 16.2 32.2126 17.1625C31.7751 18.7375 32.1251 20.4 33.0876 21.7125L33.3501 21.975L33.9626 21.5375C33.5251 21.275 33.2626 20.925 33.0876 20.4875C32.7376 19.7 32.8251 18.825 33.2626 18.125C33.5251 17.6 34.1376 17.425 34.5751 17.6875C34.6626 17.775 34.7501 17.775 34.8376 17.95C35.1001 18.2125 35.3626 18.5625 35.4501 19C35.6251 19.35 35.7126 19.875 35.7126 20.4Z" fill="white"/>
<path d="M32.9998 25.7375C33.6998 26.0875 34.3998 26.525 35.0998 26.7875C36.6748 27.4 38.4248 27.4 39.9123 26.7875C41.0498 26.35 42.1873 25.7375 43.2373 25.0375L44.6373 24.075L44.8998 23.9C44.6373 23.6375 44.2873 23.6375 44.0248 23.9C43.3248 24.425 42.5373 24.95 41.8373 25.475C40.7873 26.175 39.5623 26.6125 38.3373 26.7875C36.8498 26.9625 35.3623 26.7 34.0498 25.9125C33.5248 25.65 32.9998 25.3 32.3873 25.0375C32.2123 24.95 32.0373 24.775 32.1248 24.6C32.1248 24.25 32.2998 23.9875 32.3873 23.6375C32.6498 23.2 32.9998 22.7625 33.4373 22.4125C34.3123 21.8 35.1873 21.1875 36.1498 20.6625C37.2873 20.1375 38.5123 20.05 39.7373 20.4875C41.3123 21.1 42.8873 21.625 44.5498 22.2375C44.8123 22.325 45.0748 22.4125 45.2498 22.5875C45.6873 22.7625 46.0373 23.2875 45.9498 23.8125C45.9498 24.1625 45.8623 24.5125 45.7748 24.8625C45.6873 25.125 45.5123 25.3 45.3373 25.475C44.4623 26.0875 43.5873 26.7 42.7123 27.4C41.6623 28.275 40.5248 28.8875 39.2123 29.15C37.5498 29.5875 35.7998 28.975 34.6623 27.575C34.1373 26.9625 33.5248 26.35 32.9998 25.7375ZM38.2498 21.1C38.5998 21.275 38.8623 21.45 39.2123 21.5375H39.5623C39.5623 21.45 39.5623 21.275 39.4748 21.1875C39.1248 20.925 38.7748 20.925 38.2498 21.1ZM36.9373 21.1C36.5873 20.925 36.2373 21.0125 35.9748 21.275V21.625H36.2373C36.4998 21.45 36.7623 21.275 36.9373 21.1Z" fill="#FAC424"/>
<path d="M11.8254 62.6625C11.7379 61.7875 11.7379 60.9125 11.6504 60.125C11.6504 59.775 11.6504 59.3375 11.7379 58.9875C11.8254 58.1125 12.4379 57.4125 13.3129 57.2375C14.1879 56.975 15.1504 56.8 16.0254 56.5375C17.0754 56.275 17.9504 55.6625 18.4754 54.7C18.7379 54.2625 18.9129 53.825 19.2629 53.3875C19.7879 52.5125 20.8379 51.9875 21.8004 52.1625C22.2379 52.25 22.6754 52.5125 23.0254 52.8625C23.4629 53.3 23.9004 53.7375 24.2504 54.2625C26.3504 57.325 28.4504 60.3875 30.6379 63.45C31.2504 64.325 31.9504 65.1125 32.6504 65.9875C33.6129 67.125 34.0504 68.6125 33.7004 70.1C33.7004 70.275 33.6129 70.45 33.5254 70.625C33.0004 71.9375 31.8629 73.075 30.5504 73.6C29.5879 73.95 28.5379 73.95 27.5754 73.775C26.3504 73.6 25.2129 73.25 24.0754 72.725C22.3254 72.025 20.5754 71.5 18.7379 71.15C16.9004 70.8 15.0629 70.275 13.2254 69.75C12.8754 69.6625 12.5254 69.4875 12.1754 69.3125C11.2129 68.875 10.7754 67.825 11.0379 66.8625C11.2129 66.075 11.4754 65.2875 11.6504 64.4125C11.7379 63.8 11.8254 63.1875 11.8254 62.6625ZM51.5504 53.3C51.6379 54 51.6379 54.6125 51.8129 55.225C51.9004 55.75 52.0754 56.3625 52.3379 56.8875C52.7754 58.1125 54.0879 58.8125 55.3129 58.375C57.0629 58.025 58.5504 56.975 59.5129 55.4C59.9504 54.7875 60.2129 54.175 60.5629 53.5625C60.6504 53.3875 60.7379 53.3 60.9129 53.3C61.5254 53.3 62.0504 53.3 62.6629 53.475C63.6254 53.7375 64.3254 54.525 64.4129 55.4875C64.5004 56.1 64.5879 56.625 64.7629 57.2375C65.1129 58.4625 65.8129 59.5125 66.7754 60.3C67.4754 60.9125 68.1754 61.525 68.7879 62.225C69.5754 63.1 69.7504 63.8875 68.4379 64.9375C67.3879 65.8125 66.2504 66.5125 65.1129 67.3C62.4004 68.9625 59.8629 70.8875 57.5004 73.075C55.5754 74.65 52.9504 74.9125 50.7629 73.6875C49.5379 72.9875 48.8379 71.7625 48.7504 70.45C48.6629 69.1375 48.7504 67.7375 49.1879 66.5125C49.7129 64.325 49.9754 62.1375 49.9754 59.95C49.9754 58.6375 50.0629 57.325 50.0629 55.925C50.0629 55.3125 50.2379 54.7 50.5004 54.0875C50.5004 53.65 51.0254 53.3 51.5504 53.3Z" fill="#FBC524"/>
</svg>

<svg xmlns="http://www.w3.org/2000/svg" viewBox="0 0 80 80">
  <rect width="100%" height="100%" fill="#fff"/>
  <path fill="#292929" d="m62.05 52.77.61.1c1.05.17 1.93.96 2.1 2 .18.62.27 1.23.35 1.84.18.96.7 1.93 1.4 2.54.7.61 1.4 1.14 2.02 1.75.35.26.6.61.96.96.7.7.7 1.93 0 2.63-.44.52-.88.96-1.49 1.31a89.33 89.33 0 0 1-3.67 2.45 50.7 50.7 0 0 0-6.57 5.08 6.57 6.57 0 0 1-7.87.26 4.3 4.3 0 0 1-1.58-2.45c0-.18-.08-.27-.26-.35a15.7 15.7 0 0 0-5.25-1.49 24.19 24.19 0 0 0-6.65.09c-.52.09-1.05.26-1.49.35-.17.08-.35.17-.43.35a6.03 6.03 0 0 1-3.85 3.85 6.7 6.7 0 0 1-3.94-.09c-.96-.26-1.93-.61-2.89-.96a35.96 35.96 0 0 0-5.25-1.49c-1.92-.44-3.76-.96-5.6-1.4a6.03 6.03 0 0 1-.7-.26 2.5 2.5 0 0 1-1.4-2.98c.09-.44.18-.78.35-1.14.26-1.22.35-2.53.18-3.76-.1-.96-.1-1.92-.1-2.8a2.43 2.43 0 0 1 2.1-2.62c.8-.27 1.58-.44 2.37-.53a3.37 3.37 0 0 0 2.45-1.75c.35-.61.79-1.22 1.23-1.84.26-.34.43-.78.43-1.22-.08-3.5.88-6.91 2.8-9.8a228.2 228.2 0 0 1 5.17-7.52 23.2 23.2 0 0 0 3.32-6.57c.44-1.75.61-3.5.44-5.33a60.45 60.45 0 0 1 0-7.97 9.47 9.47 0 0 1 6.65-8.4 9.55 9.55 0 0 1 8.4 1.05 8.84 8.84 0 0 1 3.85 5.78c.35 1.57.52 3.15.44 4.72 0 2.02.08 4.11.17 6.13.09 1.92.7 3.85 1.75 5.51a35.6 35.6 0 0 0 3.24 4.81 59.27 59.27 0 0 1 5.07 8.05c.79 1.49 1.4 3.15 1.75 4.82.35 1.92.18 3.93-.35 5.86-.26.08-.26.26-.26.43Z"/>
  <path fill="#fff" d="M59.6 51.2a5.85 5.85 0 0 0-2.71-.88c-.61-.08-1.31-.08-1.93-.17a9.76 9.76 0 0 0 .53-6.3c-.53-1.93-2.71-5.08-3.59-5.16a9.82 9.82 0 0 1 2.89 5.16 8.3 8.3 0 0 1-.88 6.13c0 .08-.08.17-.17.17h-.7v-.44c-.09-1.05-.09-2.1-.18-3.15a23.02 23.02 0 0 0-2.01-6.3c-.44-.96-.96-1.84-1.66-2.62-.09-.18-.26-.35-.26-.62-.18-.78-.44-1.66-.7-2.45a25.85 25.85 0 0 1-2.2-7.26c-.08-.61-.25-1.22-.34-1.83l-1.58 1.04c-.61.44-1.22 1.05-1.92 1.5a7.36 7.36 0 0 1-3.5 1.48 4.4 4.4 0 0 1-4.2-1.75c-.35-.44-.79-.88-1.14-1.31l-.26-.27c-.26 1.32-.44 2.54-.7 3.85a16.33 16.33 0 0 1-1.49 4.56 17.53 17.53 0 0 0-1.49 3.5c0 .08-.08.17-.08.17-.35.44-.62.79-.88 1.31a26.15 26.15 0 0 0-3.06 9.8c-.26.62-.26 1.14-.26 1.58a10.06 10.06 0 0 1-.62-6.21c.35-2.1 1.32-4.03 2.72-5.6-.1 0-.1 0-.18.08-.26.27-.52.53-.79.88a12.56 12.56 0 0 0-2.53 10.06 6.54 6.54 0 0 0 1.66 3.5 9.37 9.37 0 0 0 1.66 1.58c1.14.96 2.36 1.75 3.5 2.7l1.58 1.32c.87.88.78 2.27-.1 3.15-.34.35-.7.61-1.04.88.52.52 1.14.96 1.84 1.22a15.41 15.41 0 0 0 9.7.79c2.63-.62 5-2.1 6.66-4.29.09-.09.09-.17.09-.35.08-.96.08-1.92.17-2.89.09-.96.09-1.84.18-2.8 0-1.05.78-2.01 1.92-2.19.09-.08.18-.17.18-.26a1.6 1.6 0 0 1 1.13-1.31c.53-.18 1.14-.26 1.67-.35 1.66-.18 3.4-.09 5.07.35ZM43.33 21.45c.35.18.7.26 1.13.44.09.09.27.09.35-.09v-.09c.27-.44.62-.87.88-1.4a3.7 3.7 0 0 0 .35-2.88 3.24 3.24 0 0 0-2.19-2.54 2.75 2.75 0 0 0-2.97.87 4.9 4.9 0 0 0-1.14 4.03c0 .09 0 .09.09.17l1.22.44a2.6 2.6 0 0 1 .44-2.63c.52-.7 1.49-.87 2.19-.43.35.17.52.52.6.87.36 1.31 0 2.63-.95 3.24ZM35.7 20.4c.09-.09.35-.09.53-.17.09-.1.17-.1.17-.18a5 5 0 0 0-.96-3.68c-.26-.43-.79-.7-1.31-.7a1.75 1.75 0 0 0-1.93 1.5 5.3 5.3 0 0 0 .88 4.54l.26.27.61-.44c-.43-.27-.7-.61-.87-1.05a2.51 2.51 0 0 1 .17-2.36c.27-.53.88-.7 1.32-.44.08.08.17.08.26.26.26.26.52.61.61 1.05.18.35.26.88.26 1.4Z"/>
  <path fill="#FAC424" d="M33 25.74c.7.35 1.4.79 2.1 1.05 1.57.61 3.32.61 4.81 0a17.29 17.29 0 0 0 3.33-1.75l1.4-.96.26-.18c-.26-.26-.61-.26-.88 0-.7.53-1.48 1.05-2.18 1.58a8.53 8.53 0 0 1-3.5 1.3 6.7 6.7 0 0 1-4.29-.87c-.53-.26-1.05-.61-1.66-.87-.18-.09-.35-.27-.27-.44 0-.35.18-.61.27-.96a4.6 4.6 0 0 1 1.05-1.23c.87-.61 1.75-1.22 2.71-1.75a4.63 4.63 0 0 1 3.59-.17c1.57.61 3.15 1.14 4.81 1.75.26.09.52.17.7.35.44.17.79.7.7 1.22 0 .35-.09.7-.18 1.05-.08.27-.26.44-.43.62-.88.6-1.75 1.22-2.63 1.92a7.8 7.8 0 0 1-3.5 1.75 4.4 4.4 0 0 1-4.55-1.57c-.52-.62-1.14-1.23-1.66-1.84Zm5.25-4.64c.35.17.61.35.96.44h.35c0-.09 0-.27-.09-.35-.35-.27-.7-.27-1.22-.09Zm-1.31 0c-.35-.18-.7-.09-.97.17v.36h.27c.26-.18.52-.36.7-.53Z"/>
  <path fill="#FBC524" d="M11.83 62.66c-.1-.87-.1-1.75-.18-2.53 0-.36 0-.8.09-1.14.09-.88.7-1.58 1.57-1.75.88-.27 1.84-.44 2.72-.7a3.74 3.74 0 0 0 2.45-1.84c.26-.44.43-.88.78-1.31a2.54 2.54 0 0 1 2.54-1.23c.44.09.88.35 1.23.7.43.44.87.88 1.22 1.4 2.1 3.07 4.2 6.13 6.39 9.19.61.88 1.31 1.66 2.01 2.54a4.68 4.68 0 0 1 .88 4.64 5.5 5.5 0 0 1-2.98 2.97c-.96.35-2.01.35-2.97.18a12.42 12.42 0 0 1-3.5-1.06 28.7 28.7 0 0 0-5.34-1.57 63.6 63.6 0 0 1-5.51-1.4c-.35-.09-.7-.26-1.05-.44a2.08 2.08 0 0 1-1.14-2.45c.17-.78.44-1.57.61-2.45.09-.61.18-1.22.18-1.75Zm39.72-9.36c.09.7.09 1.31.26 1.93.09.52.27 1.13.53 1.66a2.35 2.35 0 0 0 2.97 1.48 6.34 6.34 0 0 0 4.2-2.97c.44-.61.7-1.23 1.05-1.84.09-.17.18-.26.35-.26.62 0 1.14 0 1.75.18a2.33 2.33 0 0 1 1.75 2c.09.62.18 1.15.35 1.76a6.1 6.1 0 0 0 2.02 3.06c.7.61 1.4 1.23 2 1.93.8.87.97 1.66-.34 2.7-1.05.88-2.19 1.58-3.33 2.37a48.44 48.44 0 0 0-7.61 5.78 5.95 5.95 0 0 1-6.74.6 4 4 0 0 1-2.01-3.23c-.09-1.31 0-2.71.44-3.94.52-2.19.79-4.37.79-6.56 0-1.31.08-2.63.08-4.03 0-.6.18-1.22.44-1.83 0-.44.53-.79 1.05-.79Z"/>
</svg>
